usr/share/icons/biglinux-icons-material-dark/16/actions/join.svg

<svg xmlns="http://www.w3.org/2000/svg" viewBox="0 0 16 16">
<defs id="defs3051">
<style id="current-color-scheme" type="text/css">
.ColorScheme-Text{color:#dedede}
</style>
</defs>
<path d="M3.5 2A1.5 1.5 0 0 0 2 3.5a1.5 1.5 0 0 0 1 1.412v6.176A1.5 1.5 0 0 0 2 12.5 1.5 1.5 0 0 0 3.5 14 1.5 1.5 0 0 0 5 12.5a1.5 1.5 0 0 0-1-1.412v-2.36A2 2 0 0 0 5 9h6a1 1 0 0 1 1 1v1.088a1.5 1.5 0 0 0-1 1.412 1.5 1.5 0 0 0 1.5 1.5 1.5 1.5 0 0 0 1.5-1.5 1.5 1.5 0 0 0-1-1.412V10a2 2 0 0 0-2-2H5a1 1 0 0 1-1-1V4.912A1.5 1.5 0 0 0 5 3.5 1.5 1.5 0 0 0 3.5 2m0 1a.5.5 0 0 1 .5.5.5.5 0 0 1-.5.5.5.5 0 0 1-.5-.5.5.5 0 0 1 .5-.5m0 9a.5.5 0 0 1 .5.5.5.5 0 0 1-.5.5.5.5 0 0 1-.5-.5.5.5 0 0 1 .5-.5m9 0a.5.5 0 0 1 .5.5.5.5 0 0 1-.5.5.5.5 0 0 1-.5-.5.5.5 0 0 1 .5-.5" class="ColorScheme-Text" style="fill:currentColor;fill-opacity:1;stroke:none"/>
</svg>

<svg xmlns="http://www.w3.org/2000/svg" viewBox="0 0 16 16">
  <defs id="defs3051">
    <style type="text/css" id="current-color-scheme">
      .ColorScheme-Text {
        color:#dedede;
      }
      </style>
  </defs>
 <path style="fill:currentColor;fill-opacity:1;stroke:none" 
     d="M 3.5 2 A 1.4999979 1.5 0 0 0 2 3.5 A 1.4999979 1.5 0 0 0 3 4.9121094 L 3 7 L 3 11.087891 A 1.4999979 1.5 0 0 0 2 12.5 A 1.4999979 1.5 0 0 0 3.5 14 A 1.4999979 1.5 0 0 0 5 12.5 A 1.4999979 1.5 0 0 0 4 11.087891 L 4 8.7285156 A 2 2 0 0 0 5 9 L 11 9 A 1 1 0 0 1 12 10 L 12 11.087891 A 1.4999979 1.5 0 0 0 11 12.5 A 1.4999979 1.5 0 0 0 12.5 14 A 1.4999979 1.5 0 0 0 14 12.5 A 1.4999979 1.5 0 0 0 13 11.087891 L 13 10 A 2 2 0 0 0 11 8 L 5 8 A 1 1 0 0 1 4 7 L 4 4.9121094 A 1.4999979 1.5 0 0 0 5 3.5 A 1.4999979 1.5 0 0 0 3.5 2 z M 3.5 3 A 0.5 0.5 0 0 1 4 3.5 A 0.5 0.5 0 0 1 3.5 4 A 0.5 0.5 0 0 1 3 3.5 A 0.5 0.5 0 0 1 3.5 3 z M 3.5 12 A 0.5 0.5 0 0 1 4 12.5 A 0.5 0.5 0 0 1 3.5 13 A 0.5 0.5 0 0 1 3 12.5 A 0.5 0.5 0 0 1 3.5 12 z M 12.5 12 A 0.5 0.5 0 0 1 13 12.5 A 0.5 0.5 0 0 1 12.5 13 A 0.5 0.5 0 0 1 12 12.5 A 0.5 0.5 0 0 1 12.5 12 z "
     class="ColorScheme-Text"
     />
</svg>
